icons/1_Primary/Paddle.svg

<svg width="1024" height="1024" viewBox="0 0 1024 1024" fill="none" xmlns="http://www.w3.org/2000/svg">
<g clip-path="url(#clip0_2_3078)">
<path d="M512 1024C794.77 1024 1024 794.77 1024 512C1024 229.23 794.77 0 512 0C229.23 0 0 229.23 0 512C0 794.77 229.23 1024 512 1024Z" fill="#F9DE81"/>
<path d="M174.9 514.9V509.28C181.815 509.28 188.45 506.548 193.36 501.68C195.778 499.281 197.698 496.427 199.009 493.283C200.32 490.139 200.997 486.767 201 483.36H206.22C206.214 486.774 206.887 490.155 208.198 493.306C209.51 496.458 211.434 499.318 213.86 501.72C218.769 506.604 225.415 509.341 232.34 509.33V514.94C225.425 514.94 218.791 517.672 213.88 522.54C211.459 524.94 209.536 527.795 208.223 530.941C206.911 534.087 206.233 537.461 206.23 540.87H201C201.006 537.456 200.333 534.075 199.022 530.924C197.71 527.772 195.786 524.912 193.36 522.51C188.448 517.643 181.815 514.908 174.9 514.9ZM201 473.62H245.91C267.85 473.62 283.53 489.18 283.53 512C283.53 534.82 267.86 550.38 245.92 550.38H201V615.73H219.79V567H245.91C277.46 567 302.32 542.31 302.32 512C302.32 481.69 277.45 457 245.91 457H201V473.62ZM369.81 456.82C386.31 456.82 400.94 465.12 410.13 478.19V460.19H429V563.86H410.2V545.86C400.78 558.95 386.2 567.23 369.88 567.23C338.95 567.23 312.88 542.96 312.88 512.05C312.88 481.14 338.9 456.82 369.83 456.82H369.81ZM369.81 550.59C394.04 550.59 410.13 533.99 410.13 512.01C410.13 489.81 394.26 473.43 369.81 473.43C348.08 473.43 331.57 488.99 331.57 512.01C331.57 535.03 348.1 550.58 369.83 550.58L369.81 550.59ZM498.5 456.82C515.01 456.82 529.63 465.12 538.82 478.19V408.28H557.62V563.86H538.82V545.86C529.63 558.95 515.01 567.23 498.5 567.23C467.58 567.23 441.5 542.96 441.5 512.05C441.5 481.14 467.6 456.82 498.52 456.82H498.5ZM498.5 550.59C522.94 550.59 538.82 534.2 538.82 512.01C538.82 489.82 523 473.42 498.52 473.42C476.79 473.42 460.28 488.98 460.28 512C460.28 535.02 476.8 550.58 498.52 550.58L498.5 550.59ZM629.29 456.82C645.8 456.82 660.42 465.12 669.62 478.19V408.28H688.42V563.86H669.62V545.86C660.42 558.95 645.8 567.23 629.29 567.23C598.37 567.23 572.29 542.96 572.29 512.05C572.29 481.14 598.4 456.82 629.32 456.82H629.29ZM629.29 550.59C653.74 550.59 669.62 534.2 669.62 512.01C669.62 489.82 653.74 473.43 629.29 473.43C607.56 473.43 591.06 488.99 591.06 512.01C591.06 535.03 607.59 550.58 629.32 550.58L629.29 550.59ZM707.2 563.87V408.28H726V563.86L707.2 563.87ZM795.62 457C831.76 457 849.1 485 849.1 519.24H758.85C761.77 539.36 776.85 552.43 795.62 552.43C808.62 552.43 818.62 546.62 826.12 535.21H846.39C839.29 551.21 820.7 566.95 795.62 566.95C764.07 566.95 739.62 541.85 739.62 511.95C739.62 482.05 764.07 456.95 795.62 456.95V457ZM830.3 504.72C830.3 487.72 815.68 471.52 795.62 471.52C776.82 471.52 761.77 484.62 758.85 504.72H830.3Z" fill="white"/>
</g>
<defs>
<clipPath id="clip0_2_3078">
<rect width="1024" height="1024" fill="white"/>
</clipPath>
</defs>
</svg>

<svg width="1024" height="1024" fill="none" xmlns="http://www.w3.org/2000/svg"><g clip-path="url(#a)"><path d="M512 1024c282.77 0 512-229.23 512-512S794.77 0 512 0 0 229.23 0 512s229.23 512 512 512Z" fill="#F9DE81"/><path d="M174.9 514.9v-5.62a26.22 26.22 0 0 0 18.46-7.6 25.836 25.836 0 0 0 7.64-18.32h5.22a25.776 25.776 0 0 0 7.64 18.36 26.143 26.143 0 0 0 18.48 7.61v5.61a26.222 26.222 0 0 0-18.46 7.6 25.849 25.849 0 0 0-7.65 18.33H201a25.776 25.776 0 0 0-7.64-18.36 26.271 26.271 0 0 0-18.46-7.61Zm26.1-41.28h44.91c21.94 0 37.62 15.56 37.62 38.38s-15.67 38.38-37.61 38.38H201v65.35h18.79V567h26.12c31.55 0 56.41-24.69 56.41-55s-24.87-55-56.41-55H201v16.62Zm168.81-16.8c16.5 0 31.13 8.3 40.32 21.37v-18H429v103.67h-18.8v-18c-9.42 13.09-24 21.37-40.32 21.37-30.93 0-57-24.27-57-55.18s26.02-55.23 56.95-55.23h-.02Zm0 93.77c24.23 0 40.32-16.6 40.32-38.58 0-22.2-15.87-38.58-40.32-38.58-21.73 0-38.24 15.56-38.24 38.58 0 23.02 16.53 38.57 38.26 38.57l-.02.01Zm128.69-93.77c16.51 0 31.13 8.3 40.32 21.37v-69.91h18.8v155.58h-18.8v-18c-9.19 13.09-23.81 21.37-40.32 21.37-30.92 0-57-24.27-57-55.18s26.1-55.23 57.02-55.23h-.02Zm0 93.77c24.44 0 40.32-16.39 40.32-38.58 0-22.19-15.82-38.59-40.3-38.59-21.73 0-38.24 15.56-38.24 38.58 0 23.02 16.52 38.58 38.24 38.58l-.02.01Zm130.79-93.77c16.51 0 31.13 8.3 40.33 21.37v-69.91h18.8v155.58h-18.8v-18c-9.2 13.09-23.82 21.37-40.33 21.37-30.92 0-57-24.27-57-55.18s26.11-55.23 57.03-55.23h-.03Zm0 93.77c24.45 0 40.33-16.39 40.33-38.58 0-22.19-15.88-38.58-40.33-38.58-21.73 0-38.23 15.56-38.23 38.58 0 23.02 16.53 38.57 38.26 38.57l-.03.01Zm77.91 13.28V408.28H726v155.58l-18.8.01ZM795.62 457c36.14 0 53.48 28 53.48 62.24h-90.25c2.92 20.12 18 33.19 36.77 33.19 13 0 23-5.81 30.5-17.22h20.27c-7.1 16-25.69 31.74-50.77 31.74-31.55 0-56-25.1-56-55s24.45-55 56-55v.05Zm34.68 47.72c0-17-14.62-33.2-34.68-33.2-18.8 0-33.85 13.1-36.77 33.2h71.45Z" fill="#fff"/></g><defs><clipPath id="a"><path fill="#fff" d="M0 0h1024v1024H0z"/></clipPath></defs></svg>
